X:1
T:Title
%%score 1 { 2 | 3 }
L:1/8
Q:1/4=110
M:6/4
K:Eb
V:1 treble nm="Grand Piano, Soprano"
V:2 bass nm="Choir Pad, Home Ties"
V:3 bass 
V:1
 E>[EF] [EG]2 [EG]2 [FA]2 [EB]4 | E>[EF] [EG]2 [DA]2 [B,D]2 [B,E]4 | %2
w: By~H.~A.~Severinghaus * * * * *||
 [_DE]2 [CE]2 [EA]2 [EB]2 [Ec]2 [EB]2 | [EG][EG] [DF]2 [E=A]2 [EF]2 [DB]4 | %4
w: ||
 [DB]>[FA] [EG]2 [EG]2 [EG]2 [EG]2 [EG]2 | [=Ec]>[EB] [FA]2 [FA]2 [FA]2 [FA]4 | %6
w: ||
 [Ad]>[Ac] [AB]2 [Ac]2 [Ad]2 [Ge]2 [Ge]2 | [GB]>[FA] [EG]2 [DA]2 [B,D]2 [B,E]4 | %8
w: ||
 [GB]>[GB] [GB]2 [EG]2 [FA]2 [GB]4 | [GB]>[GB] [GB]2 [EG]2 [FA]2 [GB]4 | %10
w: ||
 [GB]>[GB] [Ac]2 [Ec]2 [_Gc]2 [=GB]2 [EG]2 | [EG]2 [DF]2 [E=A]2 [EF]2 [DB]4 | %12
w: ||
 [DB]>[DA] [EG]2 [EG]2 [EG]2 [EG]2 [EG]2 | [=Ec]>[EB] [FA]2 [FA]2 [FA]2 [FA]4 | %14
w: ||
 [Ad]>[Ac] [AB]2 [Ac]2 [Ad]2 [Ge]2 [Ge]2 | [GB]>[FA] [EG]2 [DA]2 [B,D]2 [B,E]4- | [B,E]6 z6 |] %17
w: |||
V:2
 G,>A, B,2 B,2 B,2 G,4 | G,>=A, B,2 F,2 _A,2 G,4 | G,2 A,2 A,2 G,2 A,2 G,2 | %3
 B,B, B,2 C2 =A,F, F,4 | B,>B, B,2 B,2[K:treble] C2 E2 B,2 | B,>C C2 C2 D2 F4 | %6
 F>E D2 D2 DB, B,2 C2 | E>C[K:bass] B,2 F,2 A,2 G,4 | E>[K:treble]E E2 B,2 B,2 E4 | %9
 E>E E2 B,2 B,2 E4 | E>E E2 E2 E2 E2[K:bass] B,2 | B,2 B,2 C2 =A,F, F,4 | %12
 B,>B, B,2 B,2[K:treble] C2 E2 B,2 | B,>C C2 C2 D2 F4 | F>E D2 D2 DB, B,2 C2 | %15
 E>C[K:bass] B,2 F,2 A,2 G,4- | G,6 z6 |] %17
V:3
 E,>E, E,2 E,2 E,2 E,4 | C,>=B,, _B,,2 B,,2 B,,2 E,4 | E,2 A,,2 C,2 .E,4 E,2 | %3
 E,E, F,2 F,2 .F,2 B,,4 | B,,>D, E,2 G,2 z2 B,2 E,2 | C,>C, F,2 A,2 z2 C4 | %6
 B,,>B,, B,,2 B,,2 .B,2 E,2 C,2 | G,,>A,, B,,2 B,,2 B,,2 E,4 | E,>E, E,2 E,2 E,2 E,4 | %9
 E,>E, E,2 E,2 E,2 E,4 | E,>E, A,2 A,2 =A,2 .B,4 | E,2 F,2 F,2 .F,2 B,,4 | %12
 B,,>B,, E,2 G,2 z2 B,2 E,2 | C,>C, F,2 A,2 z2 C4 | B,,>B,, B,,2 B,,2 .B,2 E,2 C,2 | %15
 G,,>A,, B,,2 B,,2 B,,2 E,4- | E,6 z6 |] %17

